X: 16332
T: Grumpy Old Fart, The
R: slip jig
M: 9/8
K: Edorian
|:E2 B B^AB dcB|A F2- F2 ^E F=ED|
[1 E2 B- B^AB dcB|e E2- E2 G FED:|2 E2 B- B2 c dAg|e E2- E2 g fed||
|:e2 E- E2 g fed|B^AB dcB =AFD|
E2 e- e2 f gfe|1 a2 g f2 d AFD:|2 abg ab/a/g fed||

